X: 24013
T: Logan Water
R: reel
M: 4/4
K: Eminor
BA|:G2 E2 E2 GE|DEGE D2 BA|G2 E2 EGDE|GFGA B2 AB|
c2 BA B2 AG|AGFE D2 GF|EFGA BdAB|1 G2 E2 E2 BA:|2 G2 E2 E4||

